X:2
T:Ne rentrez pas chez vous comme avant
M:C
L:1/8
K:A
Syy"Refrain"C CC|"Fa#m"A2GF- FC ED-|"Sim"D4zB, B,B,|"Mi"G2FE- EB, DC-|"La"C4zC FG|
"Fa#m"A4zA GF|"Sim"B6zc|"Fa#m"A2F2"Do#"GA GF-|"Fa#m"F4z2"fin"||"Couplets"CC|
"Fa#m"A2GF- FC CC|"Sim"E2DD-D2B,B,|"Mi"G2FE- EB, B,B,|"La"D2CC-C2CC|
"Fa#m"F2GA- AA GF|"Sim"B2AB-B2cc|"Fa#m"A2FF-F2z2|"Mi"z2EFG2EF-|"Fa#m"F4zS||
